X:024
T: Laustrum Poney
T: Langstrom's Pony
N: O'Farrell's Pocket Companion v.1 (Sky ed. p.27)
M: 6/8
R: jig
L: 1/8
Q: 320
K: D % or Amix
g|: fed cAA|cAA ecA|fed cAA|BGB/c/ dBG :|
P:2
cec dfd|cde ecA|cec dfd|BGB/c/ dBG :|
P:3
cAg fed|cde ecA|cAg fed|BGB/c/ dBG :|
P:4
cBA a2e|a/b/af ecA|BAG g2e|g/a/ge dBG :|
P:5
A2d cAA|cAA ecA|A2d cAA|BGB/c/ dBG :|
P:6
f/g/af g2e|f2d ecA|f/g/af g2d|BGB/c/ dBG :|
